X:1     %Music
T:The Praties they grow small
B:Singing Together, Autumn 1971, BBC Publications
F:http://www.folkinfo.org/songs
M:4/4     %Meter
L:1/8     %
K:G
E2 F2 |G2 F2 E2 D2 |E4 E2 F2 |E4 E2 F2 | E4
w:Oh, the pra-ties they grow small, O-ver here, o-ver here.
 E2 F2 |G2 F2 G2 A2 |B4 A2 B2 |c2 B2 A2 G2 | F4
w:Oh, the pra-ties they grow small and we dig them in the fall.
E2 F2 |G2 F2 E2 D2 |E4 E2 F2 |E4 E2 F2 | E4  |]
w: And we eat them skins and all, O-ver here, o-ver here. 